app/src/main/assets/luts/Cyber City LUT.cube
TITLE "Generated by Resolve"
LUT_3D_SIZE 9
0 0.00764477 0.0450904
0.0455177 0.0130617 0.0723888
0.163851 0.0171969 0.0927291
0.301793 0.0148013 0.117525
0.452781 0.00843824 0.139956
0.614404 0 0.161517
0.786053 0 0.181811
0.968185 0 0.201251
1 0 0.222721
0 0.122484 0.122362
0.0939651 0.128222 0.135225
0.202701 0.140047 0.107683
0.353002 0.134844 0.124254
0.507683 0.128283 0.142489
0.665644 0.121096 0.161318
0.829267 0.112139 0.179965
1 0.101061 0.198764
1 0.101717 0.22034
0.0732128 0.218387 0.252872
0.141283 0.239338 0.243839
0.198795 0.273106 0.156939
0.361105 0.268727 0.137896
0.523873 0.261723 0.150118
0.685573 0.255055 0.167193
0.851652 0.247044 0.185641
1 0.23682 0.204746
1 0.238315 0.226932
0.136019 0.326085 0.364889
0.190478 0.352377 0.353185
0.222202 0.392859 0.287739
0.367193 0.404883 0.180636
0.527642 0.401892 0.176486
0.694438 0.395712 0.186816
0.867735 0.386923 0.20119
1 0.376181 0.217685
1 0.377127 0.238422
0.19472 0.439506 0.477653
0.243687 0.469032 0.465995
0.274601 0.509529 0.412909
0.35613 0.543984 0.277424
0.540902 0.5402 0.219455
0.700252 0.537423 0.217838
0.873014 0.529351 0.225254
1 0.516976 0.236561
1 0.516289 0.253941
0.252827 0.556374 0.592523
0.298558 0.587396 0.580468
0.330007 0.627115 0.532601
0.373953 0.670253 0.414115
0.532357 0.680858 0.287633
0.713085 0.673487 0.257618
0.87689 0.667903 0.254841
1 0.655604 0.258518
1 0.653117 0.271366
0.309453 0.673381 0.706874
0.352438 0.704601 0.693736
0.383658 0.742916 0.647898
0.414038 0.786496 0.547005
0.51838 0.813916 0.393256
0.707713 0.807752 0.308492
0.883757 0.798077 0.287449
1 0.786908 0.28159
1 0.783642 0.288334
0.362249 0.787625 0.818097
0.40238 0.818006 0.803235
0.432319 0.854139 0.757382
0.457313 0.895811 0.667704
0.520485 0.931945 0.518425
0.68217 0.93666 0.380453
0.876173 0.922103 0.319646
1 0.906325 0.288853
1 0.897581 0.268223
0.409415 0.896559 0.923781
0.446448 0.925368 0.906661
0.473915 0.959243 0.859968
0.490471 0.998459 0.775235
0.518471 1 0.630442
0.622034 1 0.44181
0.810178 1 0.296117
1 1 0.203433
1 0.996445 0.14258
0 0.0199283 0.115709
0.0133822 0.0273899 0.154147
0.170718 0.0220798 0.172
0.306264 0.0231785 0.18996
0.453925 0.0175174 0.219516
0.612757 0.00761425 0.246571
0.781613 0 0.270222
0.96144 0 0.291936
1 0 0.314595
0 0.150484 0.157092
0.0389715 0.154467 0.173587
0.202533 0.145113 0.195377
0.346105 0.14168 0.216129
0.499748 0.135058 0.238193
0.656992 0.127718 0.258869
0.82002 0.118654 0.278706
0.99382 0.107439 0.298528
1 0.108095 0.320912
0 0.27361 0.234943
0.0855879 0.270863 0.258259
0.239597 0.264057 0.25919
0.367239 0.271885 0.222416
0.524575 0.265995 0.240284
0.682307 0.260319 0.260304
0.846448 0.252872 0.280293
1 0.243 0.300252
1 0.244663 0.322835
0.070985 0.363195 0.388144
0.198886 0.362951 0.394568
0.290654 0.37847 0.369741
0.367864 0.409766 0.268528
0.533455 0.405844 0.26006
0.700313 0.3991 0.273564
0.86981 0.391363 0.29102
1 0.381277 0.309712
1 0.382574 0.331533
0.178775 0.460365 0.516686
0.276219 0.472099 0.511421
0.344701 0.496071 0.483421
0.380087 0.53872 0.39762
0.544457 0.54493 0.30248
0.705516 0.541299 0.300862
0.87985 0.532677 0.310826
1 0.520577 0.324269
1 0.520287 0.343023
0.261418 0.568307 0.635096
0.341192 0.58674 0.627085
0.399374 0.614282 0.597711
0.428962 0.656352 0.528176
0.532509 0.684627 0.385336
0.717189 0.677638 0.339757
0.881819 0.671565 0.33756
1 0.658442 0.343008
1 0.655756 0.356985
0.331456 0.679973 0.750515
0.400137 0.701442 0.740749
0.451926 0.73019 0.709667
0.48043 0.77023 0.647074
0.534722 0.810071 0.511437
0.707637 0.811933 0.39501
0.887312 0.801465 0.368795
1 0.789578 0.363394
1 0.785794 0.370977
0.392248 0.790433 0.861967
0.452934 0.812894 0.850217
0.499626 0.841382 0.816907
0.527001 0.878904 0.756985
0.559579 0.920302 0.639094
0.681468 0.938537 0.480751
0.876188 0.924849 0.399969
1 0.907271 0.365743
1 0.897383 0.344778
0.444465 0.896452 0.967559
0.498619 0.918608 0.953384
0.539239 0.946166 0.917815
0.558465 0.980987 0.857176
0.568215 1 0.744076
0.626307 1 0.557748
0.800183 1 0.3832
1 1 0.282704
1 0.995178 0.225727
0 0.0327916 0.188571
0 0.0413214 0.22948
0.156939 0.0300908 0.270985
0.317433 0.0279393 0.279332
0.467002 0.0270237 0.298512
0.620722 0.0189212 0.325643
0.783154 0.00547799 0.35285
0.958236 0 0.377676
1 0 0.401755
0 0.163806 0.230152
0.016022 0.166278 0.252369
0.164691 0.159503 0.291646
0.354345 0.150683 0.305196
0.503151 0.149035 0.323461
0.654032 0.14052 0.348196
0.813382 0.129763 0.369787
0.985397 0.117327 0.390539
1 0.117311 0.413199
0 0.302892 0.277211
0.0180056 0.303792 0.289464
0.185153 0.291173 0.295293
0.366171 0.278141 0.311589
0.517281 0.27335 0.335622
0.674159 0.267491 0.357473
0.838148 0.259937 0.378683
1 0.249821 0.399619
1 0.251102 0.422629
0 0.425635 0.35378
0.0738994 0.424338 0.373007
0.255039 0.404623 0.394293
0.38999 0.406195 0.376852
0.540139 0.409415 0.345068
0.701381 0.403662 0.363577
0.867002 0.396902 0.383978
1 0.387243 0.404074
1 0.388571 0.426276
0.0563668 0.522606 0.509209
0.199466 0.517357 0.531685
0.36495 0.5037 0.527337
0.445182 0.524147 0.493019
0.547005 0.549859 0.386435
0.711635 0.545144 0.38439
0.885481 0.536202 0.397543
1 0.52488 0.413779
1 0.524941 0.433951
0.185061 0.612482 0.65832
0.313542 0.613535 0.664607
0.437934 0.615427 0.644007
0.499489 0.641749 0.607111
0.54377 0.68336 0.499062
0.721172 0.681804 0.421576
0.887144 0.675013 0.420264
1 0.661219 0.428092
1 0.65864 0.443397
0.291798 0.709468 0.785367
0.39855 0.717174 0.782025
0.497917 0.727764 0.75642
0.5505 0.756008 0.717586
0.578851 0.797955 0.63006
0.706767 0.815732 0.485863
0.890837 0.804807 0.449729
1 0.792142 0.445167
1 0.787701 0.453681
0.375952 0.810208 0.90074
0.466148 0.82179 0.89221
0.549264 0.836423 0.863569
0.595773 0.864713 0.822446
0.620233 0.903792 0.745159
0.68838 0.936767 0.591775
0.875196 0.927642 0.481071
1 0.908171 0.442878
1 0.896757 0.422141
0.443076 0.909392 1
0.520699 0.922805 0.995361
0.589532 0.939147 0.964492
0.623636 0.965942 0.919829
0.631464 1 0.840269
0.649195 1 0.6822
0.789609 1 0.478111
1 1 0.364813
1 0.993667 0.311971
0 0.0459297 0.263142
0 0.0547189 0.30663
0.11693 0.0453498 0.361227
0.318105 0.0326543 0.383291
0.480018 0.0319982 0.394751
0.635447 0.0279698 0.411261
0.793652 0.0171817 0.432868
0.961959 0.00170901 0.458076
1 0 0.484138
0 0.175418 0.307393
0 0.179599 0.336065
0.128954 0.174197 0.378088
0.345968 0.157931 0.416785
0.516823 0.159579 0.419883
0.668345 0.158679 0.435157
0.819135 0.146578 0.455573
0.98407 0.131029 0.477653
1 0.130053 0.501747
0 0.319936 0.353216
0 0.319097 0.367056
0.161959 0.302754 0.376715
0.337789 0.290242 0.415534
0.527764 0.288228 0.426001
0.678477 0.285283 0.448325
0.836057 0.274647 0.471687
1 0.261479 0.492576
1 0.261936 0.515984
0 0.455543 0.397177
0.013611 0.457313 0.4103
0.178958 0.444434 0.414816
0.359258 0.42707 0.417548
0.538048 0.41622 0.435981
0.694759 0.410834 0.459632
0.859464 0.403998 0.481605
1 0.394064 0.502693
1 0.395178 0.525521
0 0.581033 0.478676
0.074464 0.582803 0.498192
0.247913 0.565866 0.514473
0.446983 0.537972 0.532448
0.549752 0.553307 0.482963
0.718273 0.548638 0.469566
0.88632 0.540749 0.487419
1 0.530114 0.506218
1 0.530388 0.527306
0.0451362 0.682567 0.626764
0.188281 0.67982 0.655024
0.376074 0.657526 0.671412
0.537911 0.642786 0.654414
0.597467 0.670085 0.608804
0.724727 0.686046 0.50338
0.893111 0.678157 0.503517
1 0.664012 0.514229
1 0.662089 0.531548
0.172854 0.770062 0.784512
0.313893 0.765591 0.801923
0.479576 0.751675 0.796017
0.598993 0.752651 0.76553
0.646952 0.781842 0.719631
0.708629 0.817319 0.588907
0.894286 0.808057 0.530373
1 0.794537 0.52726
1 0.789258 0.536797
0.292165 0.855695 0.921355
0.4177 0.854551 0.924651
0.553567 0.84976 0.905226
0.648051 0.858564 0.8701
0.689662 0.887541 0.822599
0.717586 0.927092 0.711376
0.872435 0.930129 0.56437
1 0.908843 0.520623
1 0.895766 0.501106
0.388479 0.942489 1
0.49546 0.945006 1
0.604181 0.945434 1
0.674769 0.956558 0.96759
0.697826 0.9823 0.912917
0.698299 1 0.801007
0.781262 1 0.586908
1 1 0.450385
1 0.991882 0.401495
0 0.059205 0.339315
0 0.0680247 0.385702
0.0782483 0.0606546 0.444907
0.293828 0.0418097 0.49015
0.48513 0.0349432 0.500359
0.646815 0.0321965 0.509758
0.806882 0.0255283 0.521675
0.972625 0.0133669 0.539345
1 0.0122225 0.563714
0 0.18819 0.388663
0 0.193286 0.421942
0.0953231 0.188235 0.465476
0.300404 0.172351 0.51986
0.520104 0.166064 0.530221
0.682231 0.169223 0.534401
0.835325 0.163302 0.54406
0.994461 0.148516 0.561715
1 0.146304 0.586069
0 0.331579 0.431067
0 0.329351 0.446357
0.132418 0.315984 0.462486
0.297627 0.305989 0.503227
0.530327 0.297017 0.537881
0.699626 0.30454 0.546441
0.85507 0.29987 0.564126
1 0.28098 0.582834
1 0.278172 0.606119
0 0.473365 0.471901
0 0.475486 0.48629
0.147814 0.461418 0.49279
0.335912 0.439384 0.499519
0.528328 0.426795 0.541161
0.707439 0.431189 0.552422
0.863493 0.423163 0.576471
1 0.408621 0.597452
1 0.407599 0.619837
0 0.610574 0.519799
0.0150149 0.61561 0.535988
0.181872 0.604303 0.541833
0.358541 0.584741 0.541726
0.541802 0.564858 0.542321
0.715633 0.554559 0.56173
0.879789 0.547189 0.583322
1 0.536202 0.603342
1 0.536507 0.625315
0 0.735973 0.60412
0.0750134 0.739391 0.623804
0.249088 0.726818 0.639658
0.437873 0.700236 0.655299
0.634531 0.669673 0.660761
0.726772 0.690501 0.586725
0.898924 0.681102 0.588556
1 0.667948 0.60354
1 0.666453 0.622614
0.0352178 0.838697 0.742718
0.174273 0.8365 0.769024
0.362661 0.816327 0.793576
0.560006 0.786236 0.80032
0.69987 0.77557 0.770977
0.741665 0.808194 0.706172
0.897688 0.811276 0.610803
1 0.796551 0.610117
1 0.790631 0.620981
0.152132 0.923522 0.897978
0.294209 0.916564 0.919982
0.478096 0.894377 0.928847
0.644648 0.875959 0.911192
0.746014 0.87895 0.87303
0.777966 0.909895 0.812894
0.86804 0.931731 0.654169
1 0.909072 0.599176
1 0.894194 0.582238
0.270481 0.99942 1
0.402304 0.991821 1
0.557824 0.974029 1
0.683513 0.962997 1
0.752972 0.969573 0.964416
0.765682 0.996948 0.894606
0.788479 1 0.714961
1 1 0.53994
1 0.989883 0.494057
0 0.0725414 0.417197
0 0.0813611 0.466773
0.0428931 0.0749371 0.528756
0.250721 0.0552529 0.589746
0.473045 0.0391699 0.611002
0.652171 0.0341955 0.614878
0.81709 0.0302281 0.620768
0.984298 0.0217136 0.629068
1 0.0234226 0.647929
0 0.201556 0.472694
0 0.207111 0.509133
0.0619059 0.202014 0.553384
0.251286 0.188113 0.61001
0.497093 0.173877 0.642374
0.686793 0.173877 0.640757
0.847944 0.172564 0.642832
1 0.163424 0.650904
1 0.163424 0.671199
0 0.341131 0.510018
0 0.340139 0.527916
0.100938 0.329671 0.549477
0.262791 0.320592 0.590707
0.492714 0.309483 0.646265
0.709453 0.313939 0.65658
0.876783 0.318242 0.664912
1 0.30457 0.674205
1 0.30042 0.694789
0 0.486763 0.547112
0 0.487785 0.562921
0.125978 0.471641 0.571542
0.306172 0.453117 0.585931
0.481956 0.44329 0.631861
0.72018 0.443488 0.663081
0.891676 0.451225 0.6766
1 0.436942 0.693523
1 0.429221 0.712856
0 0.628489 0.593439
0 0.633341 0.609857
0.146181 0.623652 0.618204
0.327428 0.602838 0.619974
0.517052 0.577417 0.62472
0.721355 0.566491 0.663264
0.890593 0.569345 0.678065
1 0.553735 0.699458
1 0.550668 0.720577
0 0.765576 0.643259
0.0137636 0.770764 0.659373
0.184543 0.763043 0.668284
0.362142 0.744595 0.668849
0.539742 0.720256 0.664637
0.724147 0.697505 0.662562
0.895735 0.685939 0.680552
1 0.673289 0.698833
1 0.671687 0.718883
0 0.8878 0.726925
0.0706035 0.890166 0.744747
0.244419 0.879088 0.759411
0.431662 0.857313 0.773114
0.626184 0.822324 0.786908
0.800931 0.797238 0.773983
0.90103 0.814435 0.691081
1 0.798642 0.694865
1 0.79263 0.708202
0.0220493 0.987869 0.85452
0.156649 0.984588 0.877211
0.339101 0.964813 0.899992
0.541634 0.934798 0.918914
0.730343 0.901427 0.91194
0.840192 0.89691 0.872267
0.872587 0.928283 0.763546
1 0.908858 0.679103
1 0.891875 0.666468
0.123766 1 1
0.256153 1 1
0.43125 1 1
0.612146 0.999283 1
0.757366 0.97702 1
0.829419 0.979767 0.955566
0.834882 1 0.846815
0.992981 1 0.63476
1 0.987671 0.589731
0 0.0859998 0.497032
0 0.0947738 0.550011
0.00907912 0.0890364 0.614725
0.204028 0.0700999 0.682658
0.441871 0.0476387 0.72108
0.647089 0.0371862 0.725628
0.822858 0.0330816 0.725567
0.993591 0.0271611 0.727443
1 0.0312047 0.74049
0 0.21529 0.558877
0 0.220996 0.597375
0.0284276 0.215747 0.641794
0.207843 0.202762 0.69691
0.448295 0.184192 0.744457
0.675227 0.177157 0.750576
0.853376 0.176684 0.747189
1 0.172396 0.748974
1 0.175921 0.763424
0 0.35172 0.591257
0 0.352132 0.611643
0.0689097 0.343526 0.637095
0.229206 0.334936 0.678599
0.439277 0.323873 0.738048
0.695766 0.321172 0.769726
0.88574 0.325261 0.770962
1 0.319661 0.772976
1 0.320165 0.78761
0 0.497063 0.624109
0 0.496498 0.640208
0.101534 0.481834 0.652399
0.274815 0.467308 0.673671
0.444694 0.458305 0.719081
0.696971 0.454765 0.776699
0.908522 0.464958 0.786786
1 0.463325 0.794949
1 0.457816 0.808423
0 0.643961 0.668009
0 0.647501 0.684443
0.115099 0.636072 0.69427
0.304982 0.612772 0.698466
0.48632 0.591409 0.711879
0.676051 0.581582 0.763134
0.912184 0.587518 0.786206
1 0.588129 0.80145
1 0.581033 0.819272
0 0.784115 0.716091
0 0.788907 0.732235
0.145083 0.78114 0.741772
0.326543 0.764752 0.745418
0.507958 0.738582 0.742535
0.69662 0.710323 0.746044
0.905592 0.700587 0.776593
1 0.693049 0.794705
1 0.68751 0.814786
0 0.917556 0.764858
0.0084535 0.920943 0.779141
0.178546 0.912505 0.787213
0.360403 0.897642 0.790906
0.537743 0.873075 0.78613
0.714443 0.843763 0.77734
0.904234 0.817563 0.77145
1 0.80238 0.785657
1 0.795941 0.80087
0 1 0.843565
0.0591135 1 0.858915
0.229709 1 0.869978
0.415671 1 0.881468
0.602457 0.970031 0.892424
0.797681 0.926452 0.900404
0.928573 0.910613 0.861418
1 0.908248 0.761318
1 0.889128 0.755535
0 1 0.957656
0.118181 1 0.975204
0.277531 1 0.991638
0.456199 1 1
0.650736 1 1
0.829816 0.988708 1
0.909148 0.987747 0.935347
0.983566 1 0.7402
1 0.985245 0.688487
0 0.0995346 0.578729
0 0.108248 0.635279
0 0.102678 0.702052
0.160555 0.0851606 0.773037
0.396658 0.0600595 0.825086
0.627436 0.0428779 0.838148
0.82179 0.0356909 0.833875
0.999405 0.0309453 0.830564
1 0.0366674 0.839811
0 0.229206 0.646326
0 0.234943 0.686
0 0.229725 0.730495
0.16875 0.217243 0.783597
0.394034 0.198138 0.837369
0.644541 0.183536 0.859709
0.850401 0.179919 0.85536
1 0.17734 0.852155
1 0.18378 0.862776
0 0.363485 0.674266
0 0.365164 0.696849
0.0368505 0.357504 0.724758
0.196246 0.349172 0.766445
0.391714 0.337667 0.823743
0.651377 0.327581 0.87306
0.880308 0.327779 0.878782
1 0.326345 0.876448
1 0.331731 0.887007
0 0.506447 0.702205
0 0.505943 0.719463
0.0738689 0.493568 0.735546
0.243153 0.48159 0.761563
0.410254 0.472801 0.806455
0.642496 0.466316 0.871855
0.905669 0.472419 0.899519
1 0.47393 0.899718
1 0.476081 0.90866
0 0.656535 0.743664
0 0.658106 0.760174
0.0901656 0.643702 0.770016
0.279927 0.622538 0.778729
0.454673 0.6056 0.799634
0.633738 0.596613 0.849744
0.907439 0.599023 0.902464
1 0.608087 0.910063
1 0.611337 0.922545
0 0.800534 0.789929
0 0.804425 0.805844
0.107469 0.794873 0.815198
0.294713 0.777127 0.820874
0.484977 0.747967 0.820294
0.664591 0.724041 0.83328
0.882979 0.712871 0.887968
1 0.720058 0.899702
1 0.722728 0.916762
0 0.93637 0.835615
0 0.939422 0.849912
0.137118 0.930419 0.858015
0.320378 0.916167 0.862989
0.501717 0.893904 0.861494
0.681575 0.862257 0.853712
0.871717 0.830121 0.857771
1 0.818448 0.878584
1 0.809171 0.895872
0 1 0.879698
0 1 0.891814
0.163516 1 0.897261
0.342458 1 0.898924
0.517739 1 0.895491
0.686778 0.981399 0.883864
0.867048 0.942199 0.868681
1 0.90692 0.848371
1 0.887938 0.853803
0 1 0.950225
0.0159762 1 0.959762
0.159869 1 0.964141
0.316854 1 0.968017
0.486992 1 0.975158
0.68159 1 0.987289
0.909041 0.996445 0.980758
0.994583 0.997635 0.877455
1 0.982528 0.789761
0 0.113207 0.662486
0 0.121828 0.722576
0 0.116335 0.791119
0.119783 0.100038 0.862913
0.346883 0.0749371 0.922881
0.593393 0.0521553 0.948501
0.810422 0.0400092 0.945373
1 0.0340429 0.936416
1 0.0406653 0.943206
0 0.243214 0.734768
0 0.248905 0.77499
0 0.243565 0.819104
0.132021 0.231678 0.870497
0.343801 0.213214 0.925673
0.598093 0.193668 0.963058
0.833967 0.184344 0.965866
1 0.180774 0.958373
1 0.188708 0.966461
0 0.375952 0.758373
0 0.378393 0.782635
0.00483711 0.371603 0.812573
0.163653 0.36347 0.854383
0.350134 0.351858 0.909361
0.594659 0.337789 0.966766
0.856336 0.331258 0.987503
1 0.329747 0.982666
1 0.337469 0.990463
0 0.516411 0.781872
0 0.516854 0.800809
0.0446784 0.506477 0.820478
0.211414 0.495933 0.849607
0.376822 0.487144 0.894041
0.588968 0.478157 0.957092
0.870298 0.475242 1
1 0.476844 1
1 0.483574 1
0 0.666896 0.820508
0 0.667018 0.837034
0.0669566 0.65214 0.848081
0.251484 0.63386 0.861494
0.422782 0.619791 0.887541
0.596628 0.610605 0.935897
0.860609 0.607614 1
1 0.616068 1
1 0.623484 1
0 0.814755 0.864561
0 0.817105 0.880323
0.0762036 0.8047 0.889586
0.267933 0.783246 0.895003
0.459037 0.757519 0.90045
0.632151 0.737774 0.920775
0.830976 0.72639 0.976532
1 0.732158 1
1 0.743358 1
0 0.953002 0.908736
0 0.955413 0.922789
0.0972305 0.94522 0.93051
0.280858 0.928679 0.934859
0.469047 0.905837 0.936172
0.657893 0.870863 0.930861
0.838071 0.842954 0.944778
1 0.82829 0.990204
1 0.829664 0.995361
0 1 0.947784
0 1 0.959792
0.119997 1 0.965087
0.296529 1 0.966415
0.471138 1 0.964706
0.641199 1 0.956374
0.822385 0.959335 0.942245
1 0.913329 0.953124
1 0.898131 0.956802
0 1 0.983841
0 1 0.990768
0.0766308 1 0.990188
0.223438 1 0.986465
0.380118 1 0.980301
0.555352 1 0.971359
0.755001 1 0.952941
0.996994 1 0.935637
1 0.978943 0.895186
