app/src/main/assets/luts/Cyber City LUT.cube
TITLE "Generated by Resolve"
LUT_3D_SIZE 5
0 0.00764477 0.0450904
0.163851 0.0171969 0.0927291
0.452781 0.00843824 0.139956
0.786053 0 0.181811
1 0 0.222721
0.0732128 0.218387 0.252872
0.198795 0.273106 0.156939
0.523873 0.261723 0.150118
0.851652 0.247044 0.185641
1 0.238315 0.226932
0.19472 0.439506 0.477653
0.274601 0.509529 0.412909
0.540902 0.5402 0.219455
0.873014 0.529351 0.225254
1 0.516289 0.253941
0.309453 0.673381 0.706874
0.383658 0.742916 0.647898
0.51838 0.813916 0.393256
0.883757 0.798077 0.287449
1 0.783642 0.288334
0.409415 0.896559 0.923781
0.473915 0.959243 0.859968
0.518471 1 0.630442
0.810178 1 0.296117
1 0.996445 0.14258
0 0.0327916 0.188571
0.156939 0.0300908 0.270985
0.467002 0.0270237 0.298512
0.783154 0.00547799 0.35285
1 0 0.401755
0 0.302892 0.277211
0.185153 0.291173 0.295293
0.517281 0.27335 0.335622
0.838148 0.259937 0.378683
1 0.251102 0.422629
0.0563668 0.522606 0.509209
0.36495 0.5037 0.527337
0.547005 0.549859 0.386435
0.885481 0.536202 0.397543
1 0.524941 0.433951
0.291798 0.709468 0.785367
0.497917 0.727764 0.75642
0.578851 0.797955 0.63006
0.890837 0.804807 0.449729
1 0.787701 0.453681
0.443076 0.909392 1
0.589532 0.939147 0.964492
0.631464 1 0.840269
0.789609 1 0.478111
1 0.993667 0.311971
0 0.059205 0.339315
0.0782483 0.0606546 0.444907
0.48513 0.0349432 0.500359
0.806882 0.0255283 0.521675
1 0.0122225 0.563714
0 0.331579 0.431067
0.132418 0.315984 0.462486
0.530327 0.297017 0.537881
0.85507 0.29987 0.564126
1 0.278172 0.606119
0 0.610574 0.519799
0.181872 0.604303 0.541833
0.541802 0.564858 0.542321
0.879789 0.547189 0.583322
1 0.536507 0.625315
0.0352178 0.838697 0.742718
0.362661 0.816327 0.793576
0.69987 0.77557 0.770977
0.897688 0.811276 0.610803
1 0.790631 0.620981
0.270481 0.99942 1
0.557824 0.974029 1
0.752972 0.969573 0.964416
0.788479 1 0.714961
1 0.989883 0.494057
0 0.0859998 0.497032
0.00907912 0.0890364 0.614725
0.441871 0.0476387 0.72108
0.822858 0.0330816 0.725567
1 0.0312047 0.74049
0 0.35172 0.591257
0.0689097 0.343526 0.637095
0.439277 0.323873 0.738048
0.88574 0.325261 0.770962
1 0.320165 0.78761
0 0.643961 0.668009
0.115099 0.636072 0.69427
0.48632 0.591409 0.711879
0.912184 0.587518 0.786206
1 0.581033 0.819272
0 0.917556 0.764858
0.178546 0.912505 0.787213
0.537743 0.873075 0.78613
0.904234 0.817563 0.77145
1 0.795941 0.80087
0 1 0.957656
0.277531 1 0.991638
0.650736 1 1
0.909148 0.987747 0.935347
1 0.985245 0.688487
0 0.113207 0.662486
0 0.116335 0.791119
0.346883 0.0749371 0.922881
0.810422 0.0400092 0.945373
1 0.0406653 0.943206
0 0.375952 0.758373
0.00483711 0.371603 0.812573
0.350134 0.351858 0.909361
0.856336 0.331258 0.987503
1 0.337469 0.990463
0 0.666896 0.820508
0.0669566 0.65214 0.848081
0.422782 0.619791 0.887541
0.860609 0.607614 1
1 0.623484 1
0 0.953002 0.908736
0.0972305 0.94522 0.93051
0.469047 0.905837 0.936172
0.838071 0.842954 0.944778
1 0.829664 0.995361
0 1 0.983841
0.0766308 1 0.990188
0.380118 1 0.980301
0.755001 1 0.952941
1 0.978943 0.895186
