app/src/main/assets/luts/Cyber City LUT.cube
TITLE "Generated by Resolve"
LUT_3D_SIZE 33
0 0.00764477 0.0450904
0 0.00915541 0.0514382
0 0.0113985 0.0603037
0.01561 0.0119936 0.0692454
0.0455177 0.0130617 0.0723888
0.0719158 0.0152438 0.0749371
0.101289 0.0167391 0.0795148
0.131899 0.0172122 0.0859236
0.163851 0.0171969 0.0927291
0.196918 0.0168917 0.0992294
0.23093 0.0163424 0.10544
0.265812 0.0155489 0.111421
0.301793 0.0148013 0.117525
0.338384 0.01355 0.123262
0.375784 0.0120546 0.128908
0.413931 0.0103456 0.134463
0.452781 0.00843824 0.139956
0.49218 0.00636301 0.145373
0.532494 0.00422675 0.150881
0.573297 0.00190738 0.156283
0.614404 0 0.161517
0.655879 0 0.16669
0.697597 0 0.171832
0.740566 0 0.176867
0.786053 0 0.181811
0.833722 0 0.18677
0.881071 0 0.191485
0.926406 0 0.196277
0.968185 0 0.201251
1 0 0.206439
1 0 0.211994
1 0 0.217441
1 0 0.222721
0 0.0391394 0.0546426
0 0.0403754 0.0590372
0 0.0417487 0.0639811
0.0221561 0.0438544 0.0712139
0.0529335 0.0442512 0.079057
0.0808576 0.0462043 0.0814679
0.110628 0.0469825 0.0871443
0.14255 0.0469825 0.0936599
0.175753 0.0466773 0.0996567
0.209903 0.046128 0.105379
0.244907 0.0453346 0.110933
0.28101 0.0445869 0.116655
0.317632 0.0433509 0.122011
0.355001 0.0419013 0.127321
0.393088 0.0402533 0.132555
0.43183 0.038407 0.137743
0.471107 0.0364233 0.14287
0.51104 0.0346075 0.148241
0.551293 0.0323644 0.153307
0.591806 0.0300298 0.158312
0.632609 0.0276188 0.163272
0.67364 0.0251621 0.168231
0.714916 0.0227207 0.173236
0.757458 0.0201267 0.178302
0.802228 0.0166323 0.183032
0.848997 0.0125734 0.18764
0.895582 0.00857557 0.192248
0.940108 0.00518807 0.196963
0.981048 0.00283818 0.201877
1 0.0019379 0.207233
1 0.00177005 0.212589
1 0.00189212 0.21796
1 0.00155642 0.223239
0 0.0700542 0.0664836
0 0.0715801 0.0702831
0.00241093 0.0733043 0.0741894
0.0295567 0.0750744 0.0782025
0.0587167 0.0763867 0.0822461
0.0885023 0.0771344 0.0877241
0.120119 0.0773175 0.0933242
0.153307 0.0770886 0.0986038
0.187442 0.076585 0.103792
0.22269 0.0761273 0.109209
0.258442 0.0751812 0.114321
0.294942 0.0740063 0.119371
0.332143 0.0726482 0.124392
0.369985 0.0710918 0.129366
0.408423 0.0693828 0.134325
0.447501 0.0677501 0.139452
0.48687 0.0658885 0.144442
0.52639 0.0638743 0.149325
0.566384 0.061738 0.154192
0.606607 0.059556 0.15906
0.646998 0.0573281 0.163912
0.687587 0.0551461 0.168841
0.728435 0.0530404 0.173892
0.770184 0.0504616 0.178683
0.814374 0.0471809 0.183368
0.860533 0.0433661 0.187945
0.906493 0.0395819 0.192538
0.950362 0.0364385 0.197238
0.990906 0.0346227 0.202441
1 0.0337377 0.207614
1 0.0337682 0.212955
1 0.0341497 0.218357
1 0.0340276 0.223697
0 0.0986038 0.0868849
0 0.0995346 0.0921035
0.0178683 0.100603 0.0983139
0.0484169 0.100908 0.104875
0.0787213 0.101656 0.108202
0.0925002 0.108675 0.0989853
0.127153 0.108873 0.0963302
0.162112 0.108278 0.100389
0.197482 0.107851 0.105226
0.233158 0.106966 0.109865
0.269474 0.105898 0.114519
0.306416 0.104662 0.119173
0.343893 0.103273 0.123827
0.381888 0.101732 0.12845
0.420508 0.100252 0.133257
0.459419 0.0985885 0.137972
0.498512 0.0967575 0.142611
0.537758 0.0948959 0.147234
0.577386 0.0929122 0.151873
0.617182 0.090898 0.156512
0.657404 0.0891432 0.161425
0.697414 0.0870985 0.166094
0.737545 0.0850233 0.170764
0.778759 0.0826429 0.175372
0.822385 0.0795911 0.179858
0.867994 0.0759899 0.184253
0.913603 0.0726787 0.188876
0.956954 0.0698558 0.19353
0.996612 0.0679942 0.198322
1 0.0673228 0.203387
1 0.0675364 0.208667
1 0.0680552 0.214054
1 0.0681621 0.219409
0 0.122484 0.122362
0.0143587 0.122408 0.129168
0.0457618 0.122545 0.134295
0.0737163 0.124041 0.136385
0.0939651 0.128222 0.135225
0.103395 0.136248 0.128389
0.129259 0.141268 0.105211
0.165316 0.141207 0.104967
0.202701 0.140047 0.107683
0.24007 0.138796 0.11133
0.277394 0.137514 0.115404
0.314946 0.136156 0.119692
0.353002 0.134844 0.124254
0.391348 0.13341 0.128847
0.429892 0.131777 0.133364
0.468696 0.130053 0.137911
0.507683 0.128283 0.142489
0.546777 0.126497 0.147097
0.586236 0.124666 0.151766
0.626017 0.123018 0.156649
0.665644 0.121096 0.161318
0.705333 0.119173 0.166018
0.745144 0.11725 0.170733
0.786007 0.115038 0.175418
0.829267 0.112139 0.179965
0.874708 0.108904 0.184634
0.919951 0.105592 0.189212
0.963165 0.102815 0.193866
1 0.101061 0.198764
1 0.100465 0.203906
1 0.10074 0.209247
1 0.101625 0.214969
1 0.101717 0.22034
0.00915541 0.144884 0.159731
0.0410773 0.144915 0.163424
0.068574 0.146532 0.164813
0.0906691 0.150011 0.164355
0.106508 0.155627 0.162249
0.115557 0.16408 0.155856
0.127367 0.173526 0.130129
0.167697 0.173663 0.11313
0.203937 0.173205 0.112642
0.242191 0.171908 0.114611
0.281163 0.170291 0.117617
0.320104 0.168841 0.121324
0.358892 0.167346 0.125368
0.397589 0.165713 0.129534
0.436423 0.16405 0.133852
0.47538 0.162341 0.138293
0.514412 0.160616 0.142794
0.553491 0.158923 0.147402
0.593057 0.157366 0.15227
0.632456 0.155566 0.156954
0.671901 0.153765 0.161669
0.711376 0.151965 0.166415
0.750973 0.150149 0.171176
0.791943 0.148226 0.17612
0.83534 0.145525 0.180835
0.88072 0.142168 0.185367
0.925994 0.138842 0.189914
0.969314 0.136126 0.194614
1 0.134447 0.199573
1 0.133989 0.204868
1 0.1346 0.210529
1 0.135256 0.216022
1 0.135393 0.221439
0.0341039 0.168048 0.193103
0.062501 0.169375 0.193851
0.0859388 0.172381 0.193393
0.104494 0.177035 0.191989
0.118456 0.183551 0.189578
0.127031 0.191852 0.182849
0.134218 0.202136 0.16202
0.163867 0.207095 0.129824
0.206302 0.205798 0.120684
0.242954 0.205249 0.120211
0.28188 0.204211 0.122026
0.32166 0.202457 0.124651
0.361471 0.200626 0.127871
0.401068 0.19884 0.131487
0.440467 0.19707 0.135439
0.47982 0.195346 0.13962
0.519371 0.193896 0.144259
0.558526 0.192203 0.148745
0.597894 0.190448 0.153307
0.637339 0.188708 0.157961
0.67689 0.186969 0.162661
0.716548 0.185245 0.167437
0.756527 0.183688 0.172412
0.797559 0.18172 0.177249
0.841016 0.178958 0.181903
0.886564 0.175677 0.186465
0.932021 0.172442 0.191089
0.975479 0.169802 0.195834
1 0.168215 0.200885
1 0.168002 0.206394
1 0.168444 0.211887
1 0.169177 0.217456
1 0.169375 0.222919
0.0549783 0.192737 0.223667
0.0801556 0.195148 0.222827
0.100893 0.199405 0.221714
0.117266 0.20473 0.219776
0.129793 0.211414 0.216724
0.138308 0.219776 0.209903
0.144701 0.229969 0.192218
0.161593 0.238834 0.158618
0.203647 0.239612 0.134127
0.245365 0.238346 0.128634
0.282399 0.237736 0.128237
0.321279 0.236423 0.129564
0.361334 0.234668 0.131914
0.40174 0.232776 0.134936
0.442008 0.230884 0.138384
0.482322 0.229313 0.142412
0.522118 0.227543 0.146471
0.561761 0.225849 0.150744
0.601587 0.224125 0.155154
0.641398 0.222385 0.159655
0.681254 0.220661 0.164263
0.721462 0.219257 0.169238
0.761532 0.217563 0.174014
0.802716 0.215564 0.178775
0.846403 0.212879 0.183413
0.892119 0.209613 0.187945
0.937774 0.206439 0.192584
0.981643 0.20412 0.19762
1 0.202548 0.202655
1 0.202152 0.20795
1 0.202609 0.213443
1 0.203372 0.219043
1 0.203632 0.224552
0.0732128 0.218387 0.252872
0.0960555 0.221927 0.251362
0.114519 0.226581 0.249454
0.129488 0.23238 0.247181
0.141283 0.239338 0.243839
0.149828 0.247745 0.236973
0.156268 0.257755 0.221118
0.166949 0.268376 0.191836
0.198795 0.273106 0.156939
0.24419 0.271839 0.140688
0.284779 0.270634 0.136904
0.322103 0.269993 0.13666
0.361105 0.268727 0.137896
0.401602 0.267353 0.140352
0.44239 0.265492 0.143221
0.483223 0.263584 0.146517
0.523873 0.261723 0.150118
0.564233 0.259937 0.154009
0.604623 0.258183 0.158129
0.645151 0.256641 0.162615
0.685573 0.255055 0.167193
0.725872 0.253376 0.17174
0.766232 0.251682 0.176394
0.807691 0.249699 0.181064
0.851652 0.247044 0.185641
0.897642 0.243854 0.190173
0.943725 0.24094 0.194995
0.987503 0.238376 0.199725
1 0.23682 0.204746
1 0.236469 0.210056
1 0.236973 0.215564
1 0.237751 0.221149
1 0.238315 0.226932
0.0901045 0.244953 0.28159
0.110719 0.248905 0.279286
0.127703 0.254032 0.277028
0.141711 0.260182 0.274495
0.153002 0.267323 0.27097
0.161883 0.276036 0.264347
0.168582 0.285908 0.249699
0.176455 0.296651 0.224033
0.197787 0.304662 0.187533
0.239551 0.305821 0.159365
0.284886 0.304097 0.148501
0.324727 0.303166 0.145754
0.362676 0.302815 0.145922
0.401892 0.30164 0.147066
0.442252 0.300084 0.149096
0.483345 0.298299 0.151812
0.52459 0.296452 0.154971
0.565667 0.294636 0.158495
0.606989 0.292973 0.162417
0.648081 0.291295 0.166506
0.688884 0.289586 0.170718
0.729656 0.287892 0.175067
0.770428 0.286183 0.179553
0.812222 0.284199 0.18407
0.856779 0.281819 0.188785
0.903044 0.278599 0.193179
0.949111 0.275441 0.19765
0.993088 0.272877 0.202335
1 0.271336 0.207263
1 0.27097 0.212543
1 0.271687 0.218235
1 0.272587 0.223911
1 0.272862 0.229358
0.105791 0.271687 0.309575
0.12488 0.276143 0.30692
0.140795 0.281666 0.304448
0.154116 0.288075 0.301762
0.165377 0.295674 0.29839
0.174044 0.304143 0.291508
0.181003 0.313909 0.27776
0.187915 0.324712 0.25507
0.202411 0.334585 0.221118
0.235676 0.339147 0.185534
0.281575 0.338506 0.164828
0.326299 0.337026 0.157412
0.365576 0.336324 0.155261
0.403662 0.335744 0.155306
0.443122 0.334661 0.156435
0.48368 0.333211 0.158358
0.525078 0.331685 0.161105
0.566659 0.330037 0.164294
0.608362 0.328176 0.167666
0.649943 0.326329 0.171298
0.691402 0.324514 0.175158
0.732738 0.322744 0.179232
0.773953 0.32105 0.183505
0.816449 0.31931 0.188067
0.861097 0.316609 0.192279
0.907698 0.313344 0.196475
0.954055 0.310155 0.200809
0.998291 0.307576 0.205371
1 0.306035 0.210224
1 0.305867 0.21561
1 0.306477 0.221149
1 0.307271 0.226673
1 0.30753 0.232074
0.121035 0.298741 0.33727
0.138933 0.303609 0.334401
0.154009 0.309453 0.331792
0.167071 0.316396 0.329335
0.177813 0.323903 0.325673
0.186542 0.332464 0.318898
0.193713 0.342199 0.305821
0.200275 0.352956 0.285298
0.211154 0.363836 0.254902
0.235904 0.371405 0.217426
0.277531 0.373083 0.187442
0.324315 0.371649 0.17229
0.367987 0.370108 0.166659
0.406882 0.369589 0.16492
0.445319 0.369024 0.165057
0.485191 0.3682 0.166354
0.525948 0.366934 0.168322
0.567193 0.365347 0.170764
0.609079 0.363546 0.173693
0.651087 0.361715 0.176944
0.693065 0.359854 0.180484
0.734951 0.358053 0.184253
0.776989 0.356497 0.188449
0.81973 0.354406 0.192462
0.864775 0.351644 0.196445
0.911788 0.348333 0.200397
0.95848 0.345098 0.204501
1 0.342641 0.209033
1 0.341192 0.213901
1 0.340795 0.218997
1 0.341283 0.224338
1 0.342046 0.22977
1 0.342275 0.23508
0.136019 0.326085 0.364889
0.15314 0.331579 0.362173
0.16762 0.337819 0.35964
0.17995 0.344717 0.356863
0.190478 0.352377 0.353185
0.199252 0.361028 0.346502
0.206668 0.370779 0.334005
0.213458 0.38175 0.315343
0.222202 0.392859 0.287739
0.240314 0.402152 0.251484
0.274739 0.406668 0.215656
0.320531 0.406577 0.191959
0.367193 0.404883 0.180636
0.410025 0.403555 0.176333
0.449042 0.403433 0.175174
0.4878 0.402869 0.175387
0.527642 0.401892 0.176486
0.568307 0.40061 0.178286
0.609857 0.399023 0.180575
0.651926 0.397284 0.183398
0.694438 0.395712 0.186816
0.73669 0.393835 0.190234
0.778912 0.391959 0.193851
0.822126 0.389792 0.197559
0.867735 0.386923 0.20119
0.915236 0.383505 0.204837
0.962432 0.380392 0.208865
1 0.377813 0.213153
1 0.376181 0.217685
1 0.375723 0.222629
1 0.376165 0.227832
1 0.376883 0.233158
1 0.377127 0.238422
0.150866 0.353994 0.392844
0.167132 0.359777 0.390036
0.180987 0.366232 0.387427
0.193042 0.373358 0.384695
0.203403 0.38117 0.381033
0.212222 0.389899 0.374411
0.220096 0.399924 0.362615
0.226719 0.41059 0.344961
0.234394 0.42179 0.319783
0.248127 0.432181 0.286
0.275257 0.439139 0.247959
0.316793 0.441169 0.2168
0.364431 0.44036 0.198611
0.410513 0.438712 0.18999
0.452659 0.437568 0.186542
0.491325 0.437217 0.185321
0.530282 0.436637 0.185595
0.570184 0.435706 0.186679
0.611185 0.43444 0.188388
0.653056 0.433143 0.190829
0.695216 0.431403 0.193484
0.737621 0.429541 0.196506
0.780133 0.427619 0.199786
0.823728 0.425376 0.203159
0.869795 0.422431 0.20647
0.918029 0.419196 0.210086
0.965606 0.415763 0.213611
1 0.412985 0.217456
1 0.411276 0.22182
1 0.410773 0.226566
1 0.411154 0.231632
1 0.41207 0.237079
1 0.412192 0.242115
0.165591 0.382315 0.421057
0.181079 0.388281 0.418097
0.194476 0.394934 0.415473
0.206256 0.402228 0.412726
0.21677 0.410468 0.409369
0.225681 0.419287 0.402853
0.233417 0.429023 0.391089
0.240131 0.439612 0.374395
0.247257 0.450828 0.351186
0.258305 0.461799 0.319921
0.279469 0.470619 0.282414
0.315038 0.475273 0.246601
0.360754 0.475563 0.220752
0.408377 0.474067 0.206317
0.453681 0.472419 0.199466
0.495247 0.471443 0.196628
0.533852 0.471138 0.19559
0.573236 0.470832 0.196185
0.613443 0.469841 0.197177
0.654505 0.468528 0.198779
0.696223 0.466972 0.20087
0.738384 0.465248 0.203357
0.780941 0.463355 0.206226
0.824903 0.461265 0.209415
0.871397 0.458335 0.212482
0.919753 0.454719 0.215442
0.967727 0.451179 0.218647
1 0.448264 0.222217
1 0.446433 0.226261
1 0.445838 0.230777
1 0.446418 0.23595
1 0.446983 0.24094
1 0.446998 0.245792
0.180163 0.410773 0.449271
0.195132 0.417014 0.446342
0.208179 0.423896 0.443717
0.219989 0.431601 0.44123
0.230152 0.439673 0.437598
0.239078 0.448539 0.431128
0.246952 0.458274 0.419654
0.253819 0.468803 0.403738
0.260655 0.479973 0.382086
0.270298 0.491524 0.35346
0.2869 0.501457 0.317525
0.315999 0.507988 0.279255
0.357549 0.510201 0.247272
0.405081 0.509468 0.226291
0.452567 0.507729 0.214771
0.497169 0.506249 0.209308
0.538399 0.505638 0.207141
0.576928 0.505333 0.206287
0.616388 0.504631 0.206531
0.656718 0.503594 0.207462
0.697826 0.502266 0.208942
0.739574 0.500694 0.210925
0.782025 0.499138 0.213474
0.825849 0.496971 0.216129
0.872343 0.493904 0.218677
0.920913 0.490211 0.221241
0.969253 0.486549 0.224109
1 0.483543 0.227375
1 0.48188 0.231449
1 0.481147 0.235706
1 0.481315 0.240345
1 0.481773 0.245121
1 0.481697 0.249729
0.19472 0.439506 0.477653
0.209384 0.446128 0.474876
0.222263 0.453315 0.472389
0.233631 0.460899 0.469642
0.243687 0.469032 0.465995
0.252628 0.477928 0.459541
0.260609 0.487648 0.448295
0.267796 0.498329 0.433188
0.274601 0.509529 0.412909
0.282902 0.520897 0.386007
0.296345 0.531533 0.352193
0.319951 0.539727 0.313603
0.35613 0.543984 0.277424
0.401648 0.544549 0.250065
0.449943 0.543328 0.233158
0.497032 0.54168 0.224018
0.540902 0.5402 0.219455
0.581216 0.539498 0.217334
0.620005 0.539101 0.21651
0.659632 0.538323 0.21677
0.700252 0.537423 0.217838
0.741482 0.536141 0.219303
0.783291 0.534493 0.221134
0.826642 0.532387 0.223148
0.873014 0.529351 0.225254
0.921675 0.525612 0.227405
0.970169 0.521889 0.229877
1 0.51902 0.233082
1 0.516976 0.236561
1 0.516136 0.240589
1 0.516182 0.244984
1 0.516503 0.249516
1 0.516289 0.253941
0.2094 0.468589 0.506325
0.223667 0.475395 0.503517
0.236133 0.482597 0.500877
0.247318 0.490272 0.498116
0.257313 0.498497 0.494484
0.266285 0.507408 0.48806
0.274571 0.517357 0.477226
0.281727 0.527825 0.462486
0.288396 0.538857 0.443137
0.29601 0.55024 0.417945
0.307317 0.561303 0.386053
0.326497 0.570657 0.348592
0.357397 0.57702 0.310353
0.399069 0.579324 0.277806
0.446555 0.578805 0.254871
0.494865 0.577066 0.240864
0.541024 0.57525 0.233188
0.5841 0.573892 0.229343
0.624201 0.573175 0.227359
0.66331 0.5729 0.226825
0.703136 0.572091 0.227115
0.743603 0.570916 0.227893
0.784817 0.569451 0.229129
0.827695 0.567437 0.23064
0.873625 0.564538 0.232136
0.922179 0.560876 0.23386
0.970901 0.557336 0.236149
1 0.554116 0.238697
1 0.551934 0.24184
1 0.550973 0.245594
1 0.550912 0.24976
1 0.551308 0.254246
1 0.551049 0.258488
0.224063 0.497856 0.535103
0.237827 0.504662 0.532128
0.25008 0.511986 0.529458
0.261097 0.519738 0.52668
0.271214 0.528237 0.523247
0.280262 0.53724 0.516915
0.288396 0.546929 0.506004
0.295583 0.55726 0.491615
0.302251 0.5682 0.473106
0.309422 0.579553 0.449332
0.31928 0.59089 0.419409
0.335271 0.601282 0.383734
0.360952 0.608911 0.344579
0.397818 0.61294 0.308202
0.443122 0.613626 0.279667
0.491493 0.612375 0.260487
0.539376 0.610437 0.248875
0.584695 0.608667 0.242451
0.627634 0.607599 0.239307
0.667353 0.606897 0.237415
0.70634 0.606256 0.236713
0.746181 0.60528 0.236866
0.786755 0.603998 0.237537
0.829099 0.602182 0.238514
0.874769 0.599588 0.239704
0.922774 0.596002 0.240757
0.971069 0.592233 0.242329
1 0.588968 0.24448
1 0.586709 0.247288
1 0.585626 0.250721
1 0.585626 0.25478
1 0.585824 0.258961
1 0.585336 0.262867
0.238529 0.527062 0.563775
0.251987 0.534005 0.560769
0.264042 0.541421 0.558068
0.275105 0.549477 0.555489
0.285008 0.557855 0.551888
0.293965 0.566781 0.545495
0.302129 0.576425 0.534676
0.309392 0.586694 0.520623
0.316075 0.597528 0.5028
0.32311 0.608942 0.480369
0.332006 0.620462 0.452232
0.345235 0.631128 0.418128
0.366659 0.639902 0.379324
0.398627 0.645563 0.340658
0.44033 0.647776 0.307546
0.487861 0.647303 0.282948
0.536583 0.645884 0.26714
0.583734 0.643854 0.257389
0.628565 0.642039 0.251789
0.670619 0.640711 0.248692
0.710033 0.639979 0.246876
0.749111 0.639185 0.246174
0.78912 0.638117 0.246311
0.831006 0.636637 0.246876
0.875822 0.633967 0.247242
0.923323 0.630442 0.247745
0.971084 0.626764 0.248676
1 0.623499 0.25037
1 0.62118 0.252811
1 0.62031 0.256214
1 0.620005 0.259785
1 0.619959 0.263569
1 0.619348 0.267201
0.252827 0.556374 0.592523
0.265995 0.563424 0.589471
0.278141 0.571191 0.587045
0.288823 0.57908 0.584176
0.298558 0.587396 0.580468
0.307515 0.596307 0.574044
0.315709 0.60592 0.563333
0.323186 0.616251 0.549691
0.330007 0.627115 0.532601
0.336706 0.638285 0.51104
0.344686 0.649668 0.48423
0.3561 0.660639 0.451621
0.373953 0.670253 0.414115
0.401266 0.677287 0.374502
0.438788 0.681163 0.338003
0.484047 0.682063 0.308598
0.532357 0.680858 0.287633
0.580667 0.678813 0.273915
0.627405 0.676631 0.265431
0.671565 0.674815 0.260487
0.713085 0.673487 0.257618
0.752529 0.672984 0.256107
0.791699 0.672007 0.25536
0.832715 0.67042 0.255085
0.87689 0.667903 0.254841
0.923766 0.664515 0.254749
0.971069 0.660899 0.255161
1 0.657862 0.256428
1 0.655604 0.258518
1 0.654414 0.261295
1 0.654032 0.264591
1 0.65388 0.26807
1 0.653117 0.271366
0.267247 0.585779 0.621302
0.280324 0.593088 0.618372
0.291981 0.60061 0.61561
0.302541 0.60853 0.612696
0.312169 0.616846 0.608927
0.32108 0.625727 0.602472
0.329473 0.635447 0.592004
0.33695 0.645655 0.578561
0.343648 0.656275 0.561807
0.35021 0.667323 0.54107
0.357626 0.678645 0.515526
0.367651 0.689784 0.484489
0.382773 0.699962 0.448432
0.406348 0.7084 0.409064
0.439307 0.713588 0.370184
0.481025 0.715618 0.336507
0.528252 0.715175 0.310597
0.576715 0.713466 0.292638
0.624826 0.711147 0.280735
0.670939 0.70901 0.273457
0.714717 0.707301 0.269184
0.755581 0.706004 0.266438
0.794598 0.705089 0.264637
0.834852 0.703655 0.2636
0.878355 0.701213 0.26273
0.924559 0.697948 0.261997
0.971466 0.694652 0.262043
1 0.691554 0.262745
1 0.689204 0.26424
1 0.687968 0.266514
1 0.687526 0.269474
1 0.687312 0.272663
1 0.686732 0.275929
0.281621 0.615198 0.65008
0.294255 0.622385 0.646906
0.305699 0.629938 0.644068
0.316121 0.637873 0.641093
0.325673 0.646174 0.637293
0.334829 0.655314 0.631083
0.343038 0.664775 0.620478
0.350393 0.674769 0.607065
0.357107 0.685267 0.590707
0.363592 0.696208 0.570703
0.370642 0.707469 0.546288
0.379843 0.718898 0.51693
0.392859 0.729427 0.4822
0.412665 0.738415 0.44332
0.441382 0.744884 0.403326
0.479225 0.748272 0.366445
0.524041 0.748867 0.336065
0.57203 0.747677 0.313588
0.621057 0.745617 0.297993
0.668696 0.743252 0.28777
0.713985 0.740932 0.281193
0.756909 0.73901 0.277104
0.797345 0.737636 0.274403
0.837232 0.736324 0.272328
0.880171 0.734264 0.270939
0.92578 0.731121 0.269627
0.971801 0.727687 0.268849
1 0.72459 0.268925
1 0.722301 0.269963
1 0.721019 0.271885
1 0.720592 0.274403
1 0.7205 0.27744
1 0.719585 0.280125
0.295644 0.644358 0.678553
0.308034 0.651591 0.675319
0.319295 0.659159 0.672404
0.329732 0.667231 0.66952
0.3393 0.675624 0.665751
0.348119 0.684428 0.65922
0.356298 0.693812 0.64863
0.363653 0.7037 0.635355
0.370352 0.714046 0.619318
0.376822 0.724926 0.599985
0.383749 0.736263 0.576669
0.391913 0.747433 0.548363
0.403281 0.758175 0.514946
0.420142 0.767742 0.477195
0.445045 0.775235 0.436851
0.478859 0.77995 0.397818
0.520836 0.78201 0.363958
0.567605 0.781491 0.336965
0.616251 0.779614 0.317128
0.664775 0.777081 0.30338
0.711635 0.774472 0.294255
0.756237 0.772091 0.288319
0.798566 0.770108 0.284443
0.839796 0.768612 0.281697
0.882002 0.766506 0.279103
0.926848 0.76347 0.277058
0.972183 0.760113 0.275639
1 0.757046 0.27512
1 0.754772 0.275654
1 0.753567 0.277226
1 0.753246 0.279591
1 0.75288 0.282002
1 0.751888 0.284199
0.309453 0.673381 0.706874
0.321614 0.680629 0.703532
0.33286 0.68838 0.70074
0.343099 0.696376 0.697719
0.352438 0.704601 0.693736
0.361166 0.713314 0.687114
0.369314 0.722622 0.676524
0.376684 0.732418 0.663386
0.383658 0.742916 0.647898
0.38996 0.753536 0.628977
0.396399 0.764508 0.606256
0.403952 0.775631 0.579065
0.414038 0.786496 0.547005
0.428595 0.79649 0.510506
0.450202 0.804883 0.470527
0.480217 0.81088 0.430304
0.51838 0.813916 0.393256
0.562844 0.814374 0.362249
0.610971 0.81294 0.338094
0.659693 0.810529 0.320638
0.707713 0.807752 0.308492
0.753887 0.805035 0.300343
0.798108 0.802853 0.29514
0.84094 0.800504 0.291096
0.883757 0.798077 0.287449
0.927855 0.795178 0.284443
0.97261 0.791928 0.282429
1 0.788983 0.281392
1 0.786908 0.28159
1 0.785626 0.282628
1 0.785077 0.284398
1 0.784695 0.286473
1 0.783642 0.288334
0.32314 0.702327 0.735073
0.335286 0.709743 0.731838
0.34612 0.717296 0.728756
0.356115 0.725155 0.725551
0.365347 0.733333 0.721508
0.373999 0.74197 0.714809
0.382193 0.751278 0.70428
0.38967 0.761105 0.691356
0.396353 0.771191 0.675822
0.402609 0.781689 0.657343
0.40885 0.792493 0.635294
0.415869 0.803479 0.609079
0.424918 0.814374 0.578241
0.437888 0.824857 0.542992
0.456458 0.833844 0.503899
0.482673 0.840635 0.462959
0.517098 0.844785 0.423713
0.558679 0.846311 0.389258
0.605371 0.845609 0.361028
0.65388 0.843595 0.339742
0.70277 0.840986 0.324422
0.750164 0.837995 0.313588
0.795682 0.835157 0.306142
0.840284 0.832288 0.300725
0.884764 0.829282 0.296086
0.928923 0.826261 0.291966
0.972976 0.823178 0.289174
1 0.820432 0.287724
1 0.818204 0.287221
1 0.816892 0.287785
1 0.816281 0.288991
1 0.815839 0.290318
1 0.814649 0.291112
0.336553 0.731182 0.763195
0.348287 0.738399 0.759686
0.358907 0.745922 0.756466
0.368734 0.753689 0.75314
0.377813 0.761791 0.748989
0.386557 0.770504 0.742367
0.394705 0.779736 0.731823
0.401968 0.789258 0.718776
0.408591 0.799176 0.70341
0.414771 0.809506 0.685283
0.420874 0.820172 0.663859
0.427787 0.831327 0.638804
0.435966 0.842145 0.609064
0.447166 0.852552 0.574762
0.463218 0.861936 0.536629
0.486168 0.869535 0.495689
0.516899 0.874754 0.455055
0.555123 0.877333 0.417762
0.59968 0.877638 0.385916
0.647761 0.876158 0.360632
0.696315 0.873594 0.341619
0.744564 0.870466 0.327733
0.791348 0.867277 0.317876
0.837369 0.864012 0.310613
0.883818 0.86041 0.304723
0.929732 0.857114 0.299962
0.973327 0.853971 0.295964
1 0.851102 0.293385
1 0.848875 0.29192
1 0.847486 0.291234
1 0.846601 0.290898
1 0.845884 0.290623
1 0.844282 0.289647
0.349554 0.759533 0.790784
0.361074 0.76672 0.787182
0.371511 0.774212 0.783856
0.381292 0.782055 0.780529
0.390402 0.790204 0.77641
0.398871 0.798642 0.769528
0.406821 0.807645 0.758816
0.414054 0.81706 0.745815
0.42063 0.82681 0.730587
